X: 1
T: \^Iles de la Madeleine
R: waltz
Z: Alf Warnock - alf0@rogers.com - http://members.rogers.com/alf0. Recording in Bb.
M: 3/4
L: 1/8
K: F
zC FA dc | "F"A3G GF | "Fmaj7"E3D DC | "F6"D2 A,4 |\
"Fmaj7"zC FA dc | "F"A3G GF | "Am7"E4 D2 | "Gm7"B,6 |
"Gm6"zD GA Bd | "C7"g4 fg | "Gm7"f3d ef | e2 d4 |\
"Gm6"z^F GA Bc | "C7"e3d de | "Gm7"f3d ef | "Fmaj7"A6 ||
"F"zC FA dc | A3G GF | "Fmaj7"E3D DC | "F6"D2 A,4 |\
"Fmaj7"zC FA dc | "F6"f4 FG | "F9"A2 G3F | "Bb6"G4 GA |
"Gm7"GD GA Bd | "Gm7"g4 AG | "Bbmaj7"A4 AG | "Fmaj7"A2 G2 F2 |\
c3A cf | "Bbmaj7"d3B df | "C7"e3c eg | "F6"f6 |]
"F7"z4 f2 | "Bbmaj7"d4 F2 | "Bb6"B4 f2 | "Bbmaj7"d3f dF |\
"Bb6"B4 BG | F2 B3d | g2 f3B | "F7"A3B AG |
F4 g2 | "Cm7"_e4 F2 | "F7"A4 g2 | "Cm7"_e3g _eF |\
"F7"A4 BG | "Cm7"F2 A3c | "F7"f2 e2 _e2 | "Bbmaj7"d2 B2 G2 ||
"Bbmaj7"F4 f2 | "Bb6"d4 F2 | "Bbmaj7"B4 f2 | "Bb6"d3f dF |\
B3F DC | "Bb7"B,3A, B,C | D2 _E3F | "Eb"G4 GA |
G4 B2 | G4 _E2 | "Cm"C3B AB | "Bb"F4 D2 |\
B,3F EF | "Eb"G3_E D_E | "F7"A3F EF | "Bb"B6 |]
